X:4
T:The Dilly Song - Parsons
C:Taken down from Jas. Parsons  Mch. 1891, by F.W.B.
%%VWML:SBG-1-1-379-0
F:http://www.vwml.org/record/SBG/1/1/379
Z:Original Sibleius Transcription by Martin and Shan Graebe
L:1/4
M:4/4
I:linebreak $
K:G
c3/2 B/ c d | (B A) G2 | (c B) c d | (B A) G2 :|$ c3/2 B/ c d | e/=f/ g d2 | B G c A | F2 G2 |] 
T:The Dilly Song - Martin
T:Sent by S. S. Martyn, Egloshayle Rd, Wadebridge, as sung in that part of Cornwall.
L:1/8
M:2/4
I:linebreak $
K:G
d3/2 d/ e d | B2 A2 | DE F D | G2 G2 | d3/2 d/ e d | B2 A2 |$ DE F D | G2 G2 | B3/2 B/ B B | 
c d e e | d3/2 c/ B A | G3 G |] 
T:The Dilly Song - Wyndham
T:Sent me by Miss P. Wyndham, Clouds, Salisbury; a Somerset (?) form of the air. 
L:1/8
M:2/4
I:linebreak $
K:F
c>c dc | B2 A2 | c2 dc | A2 F2 | c>c dc | B2 A2 |$ c2 dc | A2 F2 | A>A Bc | dd c2 | B>B AG | 
F2 F2 :| 
W:Miss Wyndham says,
W:“I learnt it from Miss Leslie who heard some sailors singing it on board a private yacht.”
W:
T:The Dilly Song - Barrett
T:Somerset form sent by W.A. Barrett. Sept. 1890.
%%score [ 1 2 ]
L:1/8
M:4/4
K:F
V:1 treble nm="[Solo Soprano]"
V:2 treble nm="[Solo Soprano]"
V:1
"Both"(!fermata!c8 |"1st Singer" c>)d cB (Ac) c2 |"2nd S." F2 G G A2 G2 |"1st. S." c3/2 d/ c B (Ac) c2 |"2nd S." F2 G G A2 G2 | 
c3/2 d/ c B A c c3/2 c/ | F F G G A2 !fermata!G2 :| "a third part with a dronelike an old musette or bagpipe"!fermata!c8 | z8|] 
V:2
!fermata!z4 | !fermata!c4 | c/> d/ c/ B/ A/c/ c | F G/ G/ A G | c/> d/ c/ B/ A/c/ c | 
F G A G | c/> d/ c/ B/ A/c/ c/c/ :| F/F/G/G/ A G | "&c."(A G F E) |]
T:The Dilly Song - French Canadian
T:Fr. Canadian air “Il n’y a qu’un seul Dieu” Gagnon’s Chansons de Canada, 1880  Quebec.
L:1/8
M:4/4
I:linebreak $
K:C
G G | c2 d2 e2 d c | d2 e2 c2 || c c | B c d B c2 || G G | c2 d2 e2 d c |$ d2 e2 c2 | z2 | c4 G4 | 
w: |||||||||six urnes|
A4 G4 | A4 G2 c c | B c d B c2 ||"^&c." z2 z2 z2 |] 
w: plac- ees|rem- plis a Ca-|na en Ga- la- lie||
W:At the words “Six urnes placeés” the dancers divided into 2 choirs odd & even numbers, 
W:Turn & bow to each other’s neighbours, 
W:At “Cana en Ga-la-lie” they recommence the rhythmical dance.



